src/sprite-icons/friends.svg

<svg width="48" height="48" viewBox="0 0 48 48" fill="none" xmlns="http://www.w3.org/2000/svg">
<path d="M13.3441 47.1533C12.474 46.7666 12.0873 46.1866 12.184 45.2199C12.184 44.7365 12.184 44.1564 12.184 43.6731C11.9906 43.6731 11.7973 43.6731 11.604 43.6731C9.28378 43.6731 7.06029 43.6731 4.74012 43.6731C3.58004 43.6731 3 43.093 3 41.933C3 41.4496 3 40.9662 3 40.4828C3 39.9995 3.29002 39.7095 3.67672 39.7095C4.06341 39.7095 4.35343 39.9995 4.35343 40.4828C4.35343 40.9662 4.35343 41.4496 4.35343 41.933C4.35343 42.1263 4.4501 42.223 4.64345 42.223C7.15696 42.223 9.5738 42.223 12.184 42.223C12.184 40.6762 12.184 39.2261 12.184 37.776C10.3472 36.6159 9.76715 35.8425 9.47713 33.7157C8.31705 33.7157 7.15696 33.619 6.09356 33.7157C5.12682 33.8124 4.4501 34.8758 4.35343 35.9392C4.35343 36.4226 4.35343 36.8093 4.35343 37.2926C4.35343 37.776 4.06341 38.066 3.67672 38.066C3.29002 38.066 3 37.776 3 37.2926C3 36.8093 3 36.2292 3 35.7458C3.09667 34.5858 3.67672 33.619 4.64345 32.9423C4.74012 32.8456 4.8368 32.8456 4.93347 32.749C4.54678 31.4922 4.06341 30.3321 3.77339 29.172C2.22661 22.9849 3.19335 17.2812 6.77027 11.9641C6.96362 11.6741 7.06029 11.4808 6.86694 11.0941C6.38358 10.1273 6.57692 8.96726 7.35031 8.19387C8.1237 7.42048 9.18711 7.13046 10.2505 7.61383C10.4439 7.80717 10.6372 7.7105 10.8306 7.51715C11.9906 6.74376 13.0541 5.97037 14.2141 5.19699C14.6975 4.90696 15.0842 5.00364 15.2775 5.39033C15.4709 5.77703 15.2775 6.06705 14.8909 6.35707C13.8274 7.13046 12.764 7.80717 11.7006 8.58056C11.5073 8.67724 11.5073 8.87058 11.604 9.06393C11.9906 10.0307 11.7973 10.9974 11.1206 11.6741C10.4439 12.4475 9.5738 12.7375 8.5104 12.4475C8.22037 12.3508 8.1237 12.4475 7.93035 12.6409C5.99688 15.4444 4.8368 18.5379 4.54678 22.0182C4.16008 25.4984 4.74012 28.7853 6.09356 31.9756C6.19023 32.2656 6.38358 32.3623 6.77027 32.3623C8.1237 32.3623 9.47713 32.3623 10.7339 32.3623C10.8306 31.9756 10.7339 31.7822 10.5405 31.5889C9.38046 30.6221 8.60707 29.4621 8.41372 28.012C8.41372 27.7219 8.31705 27.6253 8.02703 27.5286C6.2869 27.0452 5.70686 24.9184 6.96362 23.565C7.06029 23.4683 7.15697 23.1783 7.15697 22.9849C7.15697 21.5348 7.15697 20.1814 7.15697 18.7313C7.15697 16.6045 8.5104 15.0577 10.4439 14.671C10.7339 14.5743 11.1206 14.5743 11.4106 14.5743C12.8607 14.5743 14.3108 14.5743 15.7609 14.5743C16.7277 14.5743 17.6944 14.8643 18.4678 15.5411C18.5645 15.6377 18.7578 15.6377 18.8545 15.6377C19.7245 15.251 20.5946 15.1544 21.5613 15.1544C22.0447 15.1544 22.4314 15.1544 22.9148 15.1544C23.3015 15.1544 23.5915 15.4444 23.6882 15.8311C23.6882 16.2178 23.3981 16.5078 22.9148 16.5078C22.238 16.5078 21.5613 16.5078 20.8846 16.5078C19.1445 16.5078 17.6944 17.8612 17.5977 19.6014C17.501 21.0515 17.5977 22.5016 17.5977 23.9517C17.5977 24.0483 17.5977 24.0483 17.5977 24.145C17.9844 24.2417 17.9844 24.0483 18.0811 23.7583C18.2744 22.6949 18.6611 21.7282 19.2412 20.8581C19.6279 20.3747 19.8212 20.2781 20.4012 20.4714C22.238 21.0515 23.9782 21.5348 25.9116 21.7282C26.395 21.7282 26.9751 21.7282 27.4584 21.6315C27.7484 21.5348 28.1351 21.3415 28.3285 21.1481C28.7152 20.7614 29.1985 20.7614 29.4886 21.2448C29.9719 22.0182 30.3586 22.8883 30.4553 23.7583C30.4553 23.9517 30.552 24.2417 30.842 24.145C30.842 24.0483 30.842 23.9517 30.842 23.855C30.842 22.8883 30.842 21.9215 30.842 20.9548C30.842 20.4714 30.7453 20.1814 30.1653 20.1814C29.7786 20.0847 29.5852 19.7947 29.5852 19.408C29.5852 18.6346 29.2952 18.0546 28.8119 17.4745C28.2318 16.7978 27.4584 16.5078 26.685 16.5078C26.395 16.5078 26.105 16.5078 25.9116 16.5078C25.525 16.5078 25.2349 16.2178 25.2349 15.8311C25.2349 15.4444 25.525 15.1544 25.9116 15.1544C26.9751 15.0577 28.0385 15.251 28.9085 15.7344C29.8753 14.7677 31.0353 14.4777 32.2921 14.5743C33.7422 14.5743 35.0956 14.5743 36.5457 14.5743C38.3825 14.5743 39.8326 15.7344 40.316 17.4745C40.316 17.5712 40.4127 17.7646 40.606 17.8612C41.1861 18.2479 41.4761 18.828 41.4761 19.5047C41.4761 20.5681 41.4761 21.7282 41.4761 22.7916C41.4761 22.9849 41.5728 23.2749 41.7661 23.3716C43.0229 24.7251 42.4428 26.7552 40.7027 27.3352C40.4127 27.4319 40.4127 27.5286 40.316 27.7219C40.026 29.172 39.3493 30.4288 38.1892 31.3955C37.9958 31.4922 37.9958 31.7822 37.8025 31.9756L37.8992 32.0722C38.5759 32.0722 39.1559 32.0722 39.8326 32.0722C40.5094 32.0722 41.2827 32.0722 41.9595 32.0722C42.3462 32.0722 42.4428 31.9756 42.6362 31.6856C43.9896 28.4953 44.473 25.2084 44.183 21.8248C43.8929 18.4413 42.7329 15.3477 40.8961 12.5442C40.7027 12.2542 40.5094 12.1575 40.2193 12.2542C39.2526 12.5442 38.3825 12.2542 37.7058 11.4808C37.0291 10.7074 36.8358 9.83732 37.2225 8.87058C37.1258 8.87058 37.0291 8.67724 36.8358 8.48389C34.0322 6.2604 30.842 4.81029 27.2651 4.23025C26.8784 4.13358 26.685 4.23025 26.4917 4.61694C25.5249 6.35707 23.0114 6.2604 22.0447 4.61694C21.8514 4.32692 21.658 4.23025 21.368 4.32692C20.2079 4.61694 19.0478 4.90696 17.8877 5.19699C17.6944 5.29366 17.3077 5.29366 17.1143 5.19699C16.921 5.10031 16.7277 4.81029 16.8243 4.61694C16.921 4.4236 17.1143 4.0369 17.3077 4.0369C18.4678 3.65021 19.5312 3.45686 20.6913 3.16684C20.7879 3.16684 20.7879 3.16684 20.8846 3.16684C21.4647 3.16684 21.7547 2.97349 21.948 2.39345C22.4314 1.23337 23.3015 0.75 24.4615 0.75C25.525 0.846674 26.395 1.33004 26.7817 2.39345C26.9751 2.78015 27.1684 2.87682 27.5551 2.97349C31.422 3.55353 34.8056 5.00364 37.8025 7.51715C38.0925 7.7105 38.2859 7.80717 38.6726 7.61383C39.6393 7.22713 40.7994 7.51715 41.4761 8.29054C42.1528 9.06393 42.3462 10.224 41.8628 11.1907C41.7661 11.3841 41.6694 11.5774 41.8628 11.8675C46.2131 18.3446 46.7931 25.2084 43.8929 32.4589C43.8929 32.5556 43.7963 32.6523 43.7963 32.749C43.9896 32.8456 44.0863 32.9423 44.2796 33.1357C45.2464 33.909 45.7297 34.8758 45.7297 36.1325C45.7297 38.066 45.7297 40.0962 45.7297 42.0296C45.7297 43.1897 45.1497 43.7698 43.9896 43.7698C41.6694 43.7698 39.4459 43.7698 37.1258 43.7698C36.9324 43.7698 36.7391 43.7698 36.5457 43.7698C36.5457 44.3498 36.5457 44.8332 36.5457 45.3165C36.6424 46.2833 36.2557 46.8633 35.3857 47.25C27.9418 47.1533 20.6913 47.1533 13.3441 47.1533ZM29.1985 36.1325C28.9085 39.2261 26.5884 40.8695 24.3649 40.8695C23.2048 40.8695 22.238 40.5795 21.368 39.8061C20.1112 38.8394 19.5312 37.5826 19.4345 36.0359C18.3711 36.0359 17.4044 36.0359 16.341 36.0359C14.6008 36.0359 13.5374 37.0993 13.5374 38.8394C13.5374 40.9662 13.5374 43.093 13.5374 45.2199C13.5374 45.6066 13.6341 45.7999 14.1175 45.7999C18.0811 45.7999 22.0447 45.7999 26.0083 45.7999C28.9085 45.7999 31.8087 45.7999 34.7089 45.7999C34.9023 45.7999 35.1923 45.8966 35.1923 45.5099C35.1923 43.1897 35.1923 40.9662 35.1923 38.6461C35.1923 37.3893 34.1289 36.2292 32.9688 36.2292C31.6154 36.0359 30.4553 36.1325 29.1985 36.1325ZM28.9085 22.8883C25.815 23.9517 23.1081 22.7916 20.3046 22.1149C20.2079 22.2115 20.1112 22.3082 20.1112 22.5016C19.6279 23.1783 19.4345 23.9517 19.4345 24.7251C19.4345 26.3685 19.3378 28.012 19.5312 29.5587C19.8212 32.0722 22.1414 33.909 24.6549 33.7157C27.1684 33.5224 29.1985 31.4922 29.1985 28.9787C29.1985 27.5286 29.1985 26.0785 29.1985 24.6284C29.1985 24.0483 29.0052 23.4683 28.9085 22.8883ZM10.0572 21.4382C9.9605 22.0182 9.76715 22.5016 9.67048 22.9849C9.5738 24.435 9.5738 25.9818 9.67048 27.4319C9.86383 30.0421 12.184 31.7822 14.6975 31.3955C15.9543 31.2022 17.0177 30.4288 17.6944 29.3654C17.5977 29.3654 17.501 29.2687 17.501 29.2687C15.8576 28.592 15.2775 27.0452 16.1476 25.4984C16.1476 25.4018 16.2443 25.4018 16.2443 25.3051C16.2443 24.3384 16.2443 23.4683 16.2443 22.5016C14.1175 22.5016 12.184 22.0182 10.0572 21.4382ZM44.183 42.3196C44.183 40.0962 44.183 37.9693 44.183 35.8425C44.183 34.8758 43.4096 33.909 42.4428 33.8124C41.2827 33.7157 40.2193 33.8124 39.0593 33.8124C38.7692 35.9392 38.1892 36.8093 36.3524 37.8727C36.3524 39.4194 36.3524 40.8695 36.3524 42.3196C39.0593 42.3196 41.5728 42.3196 44.183 42.3196ZM30.9387 29.2687C30.9387 29.3654 31.0353 29.4621 31.0353 29.4621C32.0021 30.9122 33.9356 31.6856 35.579 31.2989C37.4158 30.8155 38.7692 29.3654 38.8659 27.5286C38.9626 26.1752 38.9626 24.7251 38.8659 23.3716C38.8659 22.8883 38.6726 22.3082 38.6726 21.8248C36.4491 22.8883 34.4189 22.2115 32.2921 21.8248C32.2921 22.7916 32.2921 23.7583 32.2921 24.7251C32.2921 25.0151 32.3888 25.2084 32.4854 25.4018C33.1622 26.7552 32.6788 28.3987 31.2287 28.9787C31.132 29.172 31.0353 29.2687 30.9387 29.2687ZM30.0686 16.7011C30.3586 17.3779 30.6486 18.0546 30.9387 18.7313C31.0353 19.0213 31.132 19.118 31.3254 19.3113C31.6154 19.6014 31.9054 19.8914 32.1954 20.2781C32.2921 20.3747 32.4854 20.5681 32.5821 20.6648C33.2588 20.8581 33.8389 21.0515 34.5156 21.0515C35.4823 21.1481 36.3524 21.1481 37.3191 21.0515C37.6091 21.0515 37.8025 20.6648 37.9958 20.4714C38.1892 20.2781 38.3825 19.988 38.5759 19.988C38.7692 19.988 39.0593 20.1814 39.2526 20.3747C39.5426 20.7614 39.736 21.1481 39.9293 21.6315C39.9293 20.8581 39.9293 20.1814 39.9293 19.6014C39.9293 19.5047 39.736 19.3113 39.6393 19.2147C39.1559 19.118 38.9626 18.828 38.9626 18.3446C38.8659 17.0878 37.8992 16.1211 36.6424 16.1211C34.999 16.1211 33.3555 16.1211 31.7121 16.1211C31.0353 16.0244 30.4553 16.3145 30.0686 16.7011ZM8.60707 21.4382C8.80042 21.1481 8.99376 20.8581 9.09044 20.5681C9.47713 19.988 9.67048 19.8914 10.3472 20.0847C11.3139 20.3747 12.2807 20.5681 13.2474 20.8581C14.2141 21.0515 15.2775 21.2448 16.341 21.0515C16.2443 19.408 16.4376 17.8612 17.5977 16.7011C17.1143 16.3145 16.631 16.1211 16.0509 16.1211C14.4075 16.1211 12.8607 16.1211 11.2173 16.1211C9.76715 16.1211 8.70374 17.0878 8.60707 18.5379C8.5104 19.408 8.60707 20.4714 8.60707 21.4382ZM26.2983 34.7791C24.7516 35.1658 24.2682 35.2625 22.238 34.7791C22.5281 35.9392 21.8514 36.2292 20.8846 36.0359C20.9813 37.9693 22.5281 39.5161 24.4615 39.5161C26.395 39.4194 27.9418 37.8727 27.8451 36.1325C27.4584 36.0359 26.9751 36.0359 26.7817 35.8425C26.395 35.6492 26.395 35.1658 26.2983 34.7791ZM12.6674 36.5192C13.1507 36.0359 13.6341 35.6492 14.1175 35.2625C14.8909 34.7791 15.6642 34.6824 16.631 34.6824C16.8243 34.6824 17.0177 34.5858 17.0177 34.4891C17.1143 34.2957 17.1143 34.0057 17.211 33.619C16.341 33.7157 15.7609 33.5224 15.8576 32.4589C14.6008 32.8456 13.4407 32.8456 12.2807 32.5556C12.184 32.9423 12.0873 33.329 11.894 33.5224C11.7006 33.7157 11.2173 33.7157 10.9272 33.8124C10.8306 34.8758 11.604 36.0359 12.6674 36.5192ZM32.7755 32.5556C32.5821 33.5224 32.5821 33.5224 31.5187 33.7157C31.422 34.5858 31.5187 34.6824 32.3888 34.6824C33.4522 34.6824 34.4189 34.9725 35.1923 35.7458C35.4823 35.9392 35.6757 36.2292 35.9657 36.5192C37.1258 36.0359 37.9958 34.6824 37.8025 33.7157C36.7391 33.619 36.6424 33.7157 36.5457 32.5556C35.1923 32.9423 34.0322 32.8456 32.7755 32.5556ZM9.18711 11.2874C9.86383 11.2874 10.4439 10.7074 10.4439 10.0307C10.4439 9.35395 9.86383 8.77391 9.28378 8.77391C8.60707 8.77391 8.02703 9.25728 8.02703 9.93399C7.93035 10.7074 8.5104 11.2874 9.18711 11.2874ZM24.2682 4.52027C24.9449 4.52027 25.5249 3.94023 25.5249 3.26351C25.5249 2.5868 24.9449 2.10343 24.2682 2.00676C23.5915 2.00676 23.0114 2.5868 23.0114 3.26351C23.1081 4.0369 23.5915 4.52027 24.2682 4.52027ZM39.4459 11.2874C40.1227 11.2874 40.7027 10.7074 40.7027 10.0307C40.7027 9.35395 40.2193 8.87058 39.5426 8.77391C38.8659 8.77391 38.2859 9.25728 38.2859 9.93399C38.1892 10.7074 38.7692 11.2874 39.4459 11.2874ZM20.7879 34.6824C20.8846 34.1024 20.6913 33.7157 20.3046 33.7157C19.7245 33.619 19.1445 33.7157 18.4678 33.7157C18.4678 34.1024 18.3711 34.3924 18.3711 34.6824C19.2412 34.6824 20.0146 34.6824 20.7879 34.6824ZM30.0686 33.7157C29.5852 33.7157 29.1019 33.7157 28.6185 33.7157C27.9418 33.7157 27.6518 34.0057 27.8451 34.6824C28.6185 34.6824 29.3919 34.6824 30.262 34.6824C30.1653 34.2957 30.1653 34.0057 30.0686 33.7157ZM31.422 32.2656C31.422 31.3955 30.552 31.2989 30.262 30.7188C29.9719 31.2989 29.7786 31.6856 29.4886 32.2656C30.1653 32.2656 30.7453 32.2656 31.422 32.2656ZM19.0478 32.2656C18.7578 31.7822 18.5645 31.2989 18.2744 30.8155C17.9844 31.1055 17.7911 31.2989 17.501 31.4922C17.211 31.6856 16.921 31.8789 17.1143 32.2656C17.8877 32.2656 18.4678 32.2656 19.0478 32.2656ZM17.9844 27.9153C17.9844 27.1419 17.9844 26.4652 17.9844 25.6918C17.4044 25.7885 17.1143 26.1752 17.1143 26.6585C17.1143 27.2386 17.4044 27.7219 17.9844 27.9153ZM30.552 25.6918C30.552 26.4652 30.552 27.1419 30.552 27.9153C31.132 27.8186 31.422 27.3352 31.422 26.8519C31.5187 26.2718 31.132 25.8851 30.552 25.6918ZM8.31705 24.3384C7.83368 24.5317 7.64033 24.9184 7.64033 25.3051C7.64033 25.6918 7.83368 25.9818 8.31705 26.1752C8.31705 25.5951 8.31705 25.0151 8.31705 24.3384ZM40.316 26.1752C40.7994 25.9818 40.9927 25.6918 40.9927 25.2084C40.9927 24.8217 40.7994 24.5317 40.316 24.3384C40.316 25.0151 40.316 25.5951 40.316 26.1752Z" fill="white"/>
</svg>

<svg width="48" height="48" fill="none" xmlns="http://www.w3.org/2000/svg"><path d="M13.344 47.153c-.87-.386-1.257-.966-1.16-1.933v-1.547H4.74c-1.16 0-1.74-.58-1.74-1.74v-1.45c0-.483.29-.773.677-.773.386 0 .676.29.676.773v1.45c0 .193.097.29.29.29h7.541v-4.447c-1.837-1.16-2.417-1.934-2.707-4.06-1.16 0-2.32-.097-3.383 0-.967.096-1.644 1.16-1.74 2.223v1.354c0 .483-.29.773-.677.773-.387 0-.677-.29-.677-.773v-1.547c.097-1.16.677-2.127 1.643-2.804.097-.096.194-.096.29-.193-.386-1.257-.87-2.417-1.16-3.577-1.546-6.187-.58-11.89 2.997-17.208.194-.29.29-.483.097-.87a2.505 2.505 0 0 1 .483-2.9c.774-.774 1.837-1.064 2.9-.58.194.193.387.096.58-.097 1.16-.773 2.224-1.547 3.384-2.32.483-.29.87-.193 1.063.193.194.387 0 .677-.386.967-1.064.773-2.127 1.45-3.19 2.224-.194.096-.194.29-.097.483.387.967.193 1.933-.483 2.61-.677.774-1.547 1.064-2.61.774-.29-.097-.387 0-.58.193-1.934 2.803-3.094 5.897-3.384 9.377-.387 3.48.193 6.767 1.547 9.958.096.29.29.386.676.386h3.964c.097-.386 0-.58-.194-.773-1.16-.967-1.933-2.127-2.126-3.577 0-.29-.097-.387-.387-.483-1.74-.484-2.32-2.61-1.063-3.964.096-.097.193-.387.193-.58V18.73c0-2.127 1.353-3.673 3.287-4.06.29-.097.677-.097.967-.097h4.35c.967 0 1.933.29 2.707.967.096.097.29.097.387.097.87-.387 1.74-.484 2.706-.484h1.354c.387 0 .677.29.773.677 0 .387-.29.677-.773.677h-2.03a3.286 3.286 0 0 0-3.287 3.093c-.097 1.45 0 2.9 0 4.35v.194c.386.097.386-.097.483-.387a7.628 7.628 0 0 1 1.16-2.9c.387-.483.58-.58 1.16-.387 1.837.58 3.577 1.064 5.51 1.257.484 0 1.064 0 1.547-.097.29-.096.677-.29.87-.483.387-.387.87-.387 1.16.097.484.773.87 1.643.967 2.513 0 .194.097.484.387.387v-3.19c0-.484-.097-.774-.677-.774-.386-.096-.58-.386-.58-.773 0-.773-.29-1.353-.773-1.934a2.742 2.742 0 0 0-2.127-.966h-.773a.66.66 0 0 1-.677-.677.66.66 0 0 1 .677-.677c1.063-.096 2.127.097 2.997.58.966-.966 2.126-1.256 3.383-1.16h4.254c1.837 0 3.287 1.16 3.77 2.9 0 .097.097.29.29.387.58.387.87.967.87 1.644v3.287c0 .193.097.483.29.58 1.257 1.353.677 3.383-1.063 3.963-.29.097-.29.194-.387.387-.29 1.45-.967 2.707-2.127 3.673-.193.097-.193.387-.386.58l.096.097h4.061c.386 0 .483-.096.676-.386 1.354-3.19 1.837-6.478 1.547-9.861-.29-3.384-1.45-6.477-3.287-9.28-.193-.29-.387-.387-.677-.29-.966.29-1.837 0-2.513-.774-.677-.774-.87-1.644-.484-2.61-.096 0-.193-.194-.386-.387-2.804-2.224-5.994-3.674-9.57-4.254-.388-.096-.581 0-.774.387-.967 1.74-3.48 1.643-4.447 0-.194-.29-.387-.387-.677-.29l-3.48.87c-.194.097-.58.097-.774 0-.193-.097-.386-.387-.29-.58.097-.193.29-.58.484-.58 1.16-.387 2.223-.58 3.383-.87h.194c.58 0 .87-.194 1.063-.774.483-1.16 1.354-1.643 2.514-1.643 1.063.097 1.933.58 2.32 1.643.193.387.386.484.773.58 3.867.58 7.25 2.03 10.248 4.544.29.193.483.29.87.097.966-.387 2.126-.097 2.803.677.677.773.87 1.933.387 2.9-.097.193-.194.386 0 .676 4.35 6.478 4.93 13.341 2.03 20.592 0 .097-.097.193-.097.29.194.097.29.193.484.387.966.773 1.45 1.74 1.45 2.996v5.898c0 1.16-.58 1.74-1.74 1.74h-7.444v1.546c.096.967-.29 1.547-1.16 1.934-7.444-.097-14.695-.097-22.042-.097Zm15.854-11.02c-.29 3.093-2.61 4.736-4.833 4.736-1.16 0-2.127-.29-2.997-1.063-1.257-.967-1.837-2.223-1.933-3.77H16.34c-1.74 0-2.804 1.063-2.804 2.803v6.38c0 .388.097.58.58.58h20.591c.194 0 .484.098.484-.29v-6.863c0-1.257-1.063-2.417-2.223-2.417-1.354-.193-2.514-.096-3.77-.096Zm-.29-13.245c-3.093 1.064-5.8-.096-8.603-.773-.097.097-.194.193-.194.387-.483.676-.677 1.45-.677 2.223 0 1.643-.096 3.287.097 4.834.29 2.513 2.61 4.35 5.124 4.157 2.513-.194 4.543-2.224 4.543-4.737v-4.35c0-.58-.193-1.16-.29-1.74Zm-18.85-1.45c-.098.58-.29 1.064-.388 1.547a34.128 34.128 0 0 0 0 4.447c.194 2.61 2.514 4.35 5.027 3.963 1.257-.193 2.32-.966 2.997-2.03-.096 0-.193-.096-.193-.096-1.643-.677-2.224-2.224-1.353-3.77 0-.097.096-.097.096-.194v-2.803c-2.127 0-4.06-.484-6.187-1.064ZM44.182 42.32v-6.477c0-.967-.773-1.934-1.74-2.03-1.16-.097-2.224 0-3.384 0-.29 2.126-.87 2.996-2.707 4.06v4.447h7.831ZM30.939 29.269c0 .096.096.193.096.193.967 1.45 2.9 2.224 4.544 1.837 1.837-.483 3.19-1.934 3.287-3.77a29.82 29.82 0 0 0 0-4.157c0-.484-.193-1.064-.193-1.547-2.224 1.063-4.254.387-6.38 0v2.9c0 .29.096.483.192.677.677 1.353.194 2.997-1.256 3.577-.097.193-.194.29-.29.29Zm-.87-12.568.87 2.03c.096.29.193.387.386.58.29.29.58.58.87.967l.387.387c.677.193 1.257.387 1.934.387.966.096 1.836.096 2.803 0 .29 0 .483-.387.677-.58.193-.194.386-.484.58-.484.193 0 .483.193.677.387.29.386.483.773.676 1.256v-2.03c0-.096-.193-.29-.29-.386-.483-.097-.676-.387-.676-.87-.097-1.257-1.064-2.224-2.32-2.224h-4.93c-.678-.097-1.258.194-1.644.58ZM8.607 21.438c.193-.29.387-.58.483-.87.387-.58.58-.677 1.257-.483.967.29 1.934.483 2.9.773.967.194 2.03.387 3.094.194-.097-1.644.097-3.19 1.257-4.35-.484-.388-.967-.58-1.547-.58h-4.834c-1.45 0-2.513.966-2.61 2.416-.097.87 0 1.933 0 2.9ZM26.298 34.78c-1.546.387-2.03.483-4.06 0 .29 1.16-.387 1.45-1.353 1.257.096 1.933 1.643 3.48 3.576 3.48 1.934-.097 3.48-1.643 3.384-3.383-.387-.097-.87-.097-1.063-.29-.387-.194-.387-.677-.484-1.064Zm-13.63 1.74c.483-.483.966-.87 1.45-1.256.773-.484 1.546-.58 2.513-.58.193 0 .387-.097.387-.194.096-.193.096-.483.193-.87-.87.097-1.45-.097-1.353-1.16a6.456 6.456 0 0 1-3.577.097c-.097.386-.194.773-.387.966-.193.194-.677.194-.967.29-.096 1.064.677 2.224 1.74 2.707Zm20.108-3.963c-.194.966-.194.966-1.257 1.16-.097.87 0 .966.87.966 1.063 0 2.03.29 2.803 1.064.29.193.484.483.774.773 1.16-.483 2.03-1.837 1.837-2.803-1.064-.097-1.16 0-1.257-1.16-1.354.386-2.514.29-3.77 0ZM9.187 11.287a1.28 1.28 0 0 0 1.257-1.256c0-.677-.58-1.257-1.16-1.257-.677 0-1.257.483-1.257 1.16-.097.773.483 1.353 1.16 1.353ZM24.268 4.52a1.28 1.28 0 0 0 1.257-1.256c0-.677-.58-1.16-1.257-1.257a1.28 1.28 0 0 0-1.257 1.257c.097.773.58 1.256 1.257 1.256Zm15.178 6.767a1.28 1.28 0 0 0 1.257-1.256c0-.677-.484-1.16-1.16-1.257-.677 0-1.257.483-1.257 1.16-.097.773.483 1.353 1.16 1.353ZM20.788 34.682c.097-.58-.097-.966-.483-.966-.58-.097-1.16 0-1.837 0 0 .386-.097.676-.097.966h2.417Zm9.28-.966h-1.45c-.676 0-.966.29-.773.966h2.417c-.097-.386-.097-.676-.193-.966Zm1.354-1.45c0-.87-.87-.967-1.16-1.547l-.773 1.547h1.933Zm-12.374 0c-.29-.484-.483-.967-.774-1.45-.29.29-.483.483-.773.676-.29.194-.58.387-.387.774h1.934Zm-1.064-4.35v-2.224c-.58.096-.87.483-.87.966 0 .58.29 1.064.87 1.257Zm12.568-2.224v2.223c.58-.096.87-.58.87-1.063.097-.58-.29-.967-.87-1.16ZM8.317 24.338c-.483.194-.677.58-.677.967s.194.677.677.87v-1.837Zm31.999 1.837c.483-.193.677-.483.677-.967 0-.386-.194-.676-.677-.87v1.837Z" fill="#fff"/></svg>
